packages/core/src/svgs/tokens/branded/SYLO.svg

<svg width="24" height="24" viewBox="0 0 24 24" fill="none" xmlns="http://www.w3.org/2000/svg">
<path d="M22 12.1761C22.0001 12.5782 21.9209 12.9763 21.767 13.3478C21.6132 13.7193 21.3877 14.0567 21.1035 14.3411C20.8191 14.6253 20.4817 14.8508 20.1102 15.0046C19.7388 15.1585 19.3406 15.2377 18.9385 15.2376C18.5365 15.2377 18.1384 15.1585 17.7669 15.0046C17.3955 14.8508 17.0579 14.6253 16.7737 14.3411C16.4893 14.0567 16.2638 13.7193 16.11 13.3478C15.9562 12.9763 15.8771 12.5782 15.8772 12.1761C15.8772 11.7741 15.9565 11.3761 16.1104 11.0048C16.2642 10.6335 16.4897 10.2961 16.774 10.0118C17.0583 9.72771 17.3957 9.5023 17.7671 9.34853C18.1385 9.19477 18.5365 9.11566 18.9385 9.11572C19.3406 9.11566 19.7388 9.1948 20.1102 9.34863C20.4817 9.50246 20.8191 9.72795 21.1035 10.0122C21.3877 10.2965 21.6132 10.634 21.767 11.0055C21.9209 11.3769 22.0001 11.7741 22 12.1761ZM20.5024 12.1761C20.5024 11.3143 19.8005 10.6123 18.9381 10.6123C18.5234 10.6128 18.1259 10.7778 17.8327 11.0711C17.5395 11.3644 17.3747 11.7619 17.3742 12.1767C17.3742 13.0385 18.0767 13.7404 18.9385 13.7404C19.8005 13.7404 20.5024 13.0385 20.5024 12.1761Z" fill="#E5661F"/>
<path d="M4.46816 15.2374C5.70567 15.2374 6.65923 14.6938 6.65923 13.42V13.4C6.65923 12.3494 5.74504 11.887 4.94045 11.6164C4.32468 11.4063 3.77716 11.2503 3.77716 10.932V10.912C3.77716 10.6879 3.97993 10.512 4.37897 10.512C4.71775 10.512 5.15716 10.6545 5.61699 10.8782C5.70467 10.9259 5.81278 10.9529 5.91442 10.9529H5.92787C6.27959 10.9529 6.56357 10.6615 6.56357 10.3092C6.56357 10.0451 6.41511 9.80803 6.17846 9.69942C5.63036 9.416 5.02339 9.26516 4.40638 9.25901C3.25057 9.25901 2.30998 9.91614 2.30998 11.0815V11.1013C2.30998 12.2193 3.22267 12.592 4.0138 12.8221C4.64303 13.0114 5.18506 13.2167 5.18506 13.5694V13.5893C5.18506 13.8469 4.97581 14.0163 4.50253 14.0163C4.0427 14.0163 3.50166 13.8469 2.95364 13.5011C2.85664 13.4467 2.74704 13.4187 2.63579 13.42H2.61586C2.4491 13.4244 2.29083 13.4945 2.17551 13.615C2.06019 13.7356 1.99715 13.8968 2.0001 14.0636C2.0001 14.2938 2.11518 14.504 2.31096 14.6191C2.94666 15.0456 3.69745 15.2374 4.46816 15.2374ZM8.66745 16.7319C9.64139 16.7319 10.1211 16.2801 10.6015 15.1153L12.5828 10.4024C12.6307 10.2808 12.6505 10.1453 12.6575 10.0163V10.0098C12.6536 9.80845 12.5704 9.61675 12.4262 9.47623C12.282 9.3357 12.0881 9.25766 11.8868 9.25901C11.4742 9.25901 11.2377 9.54946 11.1086 9.89471L9.92538 13.1305L8.66346 9.87479C8.52846 9.48818 8.2923 9.25901 7.88628 9.25901C7.43292 9.25901 7.0812 9.58334 7.0812 10.0442C7.09465 10.1727 7.12155 10.2947 7.16937 10.4168L9.14721 14.8647L9.09341 14.9932C8.94494 15.2847 8.80943 15.339 8.51898 15.339C8.39692 15.339 8.28234 15.3186 8.17423 15.2782C8.08664 15.2511 7.99544 15.2372 7.90372 15.2374H7.89724C7.53853 15.2443 7.25457 15.5423 7.26154 15.9015C7.26154 16.301 7.53853 16.4908 7.77518 16.579C8.05915 16.6807 8.36355 16.7454 8.66745 16.7319ZM13.4586 14.4154C13.4586 14.8627 13.7595 15.2369 14.2059 15.2369C14.6523 15.2369 14.9532 14.8632 14.9532 14.4154V8.1022C14.9532 7.65482 14.6527 7.26624 14.2059 7.26624C13.7595 7.26624 13.4586 7.65482 13.4586 8.1022V14.4154Z" fill="white"/>
</svg>

<svg xmlns="http://www.w3.org/2000/svg" width="24" height="24" fill="none" viewBox="0 0 24 24">
    <path fill="#E5661F" d="M22 12.176a3.06 3.06 0 0 1-4.233 2.829A3.061 3.061 0 1 1 22 12.176m-1.498 0c0-.862-.701-1.564-1.564-1.564a1.566 1.566 0 0 0-1.564 1.565c0 .862.703 1.563 1.565 1.563.861 0 1.563-.701 1.563-1.564"/>
    <path fill="#fff" d="M4.468 15.237c1.238 0 2.191-.543 2.191-1.817v-.02c0-1.05-.914-1.513-1.719-1.784-.615-.21-1.163-.366-1.163-.684v-.02c0-.224.203-.4.602-.4.339 0 .778.143 1.238.366a.64.64 0 0 0 .297.075h.014a.64.64 0 0 0 .636-.644.67.67 0 0 0-.386-.61 3.94 3.94 0 0 0-1.772-.44c-1.155 0-2.096.657-2.096 1.822v.02c0 1.118.913 1.491 1.704 1.721.629.19 1.171.395 1.171.747v.02c0 .258-.21.427-.682.427-.46 0-1.001-.17-1.55-.515a.64.64 0 0 0-.317-.081h-.02a.633.633 0 0 0-.616.644c0 .23.115.44.311.555.636.427 1.386.618 2.157.618m4.2 1.495c.973 0 1.453-.452 1.934-1.617l1.98-4.713c.049-.121.068-.257.075-.386v-.006a.766.766 0 0 0-.77-.751c-.413 0-.65.29-.778.636L9.925 13.13 8.663 9.875c-.135-.387-.37-.616-.777-.616-.453 0-.805.324-.805.785.014.129.04.25.088.373l1.978 4.448-.054.128c-.148.292-.284.346-.574.346a1 1 0 0 1-.345-.06 1 1 0 0 0-.27-.042h-.007a.65.65 0 0 0-.635.665c0 .399.277.589.513.677.284.102.589.166.892.153m4.79-2.317c0 .448.301.822.748.822.446 0 .747-.374.747-.822V8.102c0-.447-.3-.836-.747-.836s-.747.389-.747.836z"/>
</svg>
